X:1
T:I Owe the Lord a Morning Song
T:Amos Forrer Herr, 1890
T:I Owe the Lord a Morning Song
T:Public Domain
C:Amos Forrer Herr, 1890
Z:Public Domain
%%score ( 1 2 ) ( 3 4 )
L:1/8
M:4/4
K:G
V:1 treble 
V:2 treble 
V:3 bass 
V:4 bass 
V:1
 [DG]4 [DG]2 D2 | (G3 A B2) [Ec]2 | (B2 A2) (G2 F2) | [DG]6 [FA]2 | (B3 A G2) [GB]2 | %5
w: 1.~I owe the|a * * morn-|song * Of *|tude and|praise, * * For|
w: 2.~He kept me|an- * * oth-|night; * I *|oth- er|day; * * Now|
w: 3.~Keep me from|ger * * and|sin; * Help *|will to|do, * * So|
w: 4.~Keep me till|wilt * * call|hence, * Where *|night can|be; * * And|
 [Gd]4 [G^c]4 | [Fd]8 | [DG]4 [DG]2 [FA]2 | (B3 A G2) [Ec]2 | (B2 A2) (G2 F2) | [DG]6 [=FB]2 | %11
w: kind mer-|cy|He has shown|In * * length-|out * my *||
w: His Spir-|it,|as the light,|Di- * * rect|in * His *||
w: my heart|be|pure with- in;|And * * I|good- * ness *||
w: me, Lord,|for|Jes- us’ sake.|He * * shed|blood * for *||
 ([=Fd]3 [Ec] [DB]2) [Gc]2 | (B2 G2) [FA]4 | G8 |] %14
w: |||
w: |||
w: |||
w: |||
V:2
 x6 D2 | D6 x2 | D4 D4 | x8 | G6 x2 | x8 | x8 | x8 | G6 x2 | D4 D4 | x8 | x8 | G4 x4 | G8 |] %14
w: Lord|ing|grat- i-||the||||ening|days. *|||||
w: safe|er|see an-||may||||me|way. *|||||
w: dan-|from|me Thy||that||||Thy|know. *|||||
w: Thou|me|nev- er||save||||His|me. *|||||
V:3
 [G,B,]4 [G,B,]2 [G,B,]2 | (B,3 A, G,2) [C,G,]2 | (G,2 C2) (B,2 A,2) | [G,,B,]6 [D,D]2 | %4
 (D3 C B,2) [G,D]2 | [G,B,]4 A,4 | [D,A,]8 | [G,B,]4 [G,B,]2 [D,D]2 | (G,3 A, B,2) [C,G,]2 | %9
 (G,2 C2) (B,2 A,2) | [G,B,]6 G,2 | (B,3 C D2) [C,E]2 | (D2 B,2) (C2 D2) | [G,B,]8 |] %14
V:4
 x8 | G,6 x2 | D,4 D,4 | x8 | G,6 x2 | x4 A,4 | x8 | x8 | G,6 x2 | D,4 D,4 | x6 G,2 | G,6 x2 | %12
 D,4 D,4 | x8 |] %14

